build/img/0-common/mail.svg

<svg width="30" height="30" viewBox="0 0 30 30" fill="none" xmlns="http://www.w3.org/2000/svg">
<rect width="30" height="30" rx="3" fill="white"/>
<g clip-path="url(#clip0)">
<path d="M22.8593 10.1787L18.0068 14.9999L22.8593 19.8211C22.947 19.6378 23.0002 19.4351 23.0002 19.2187V10.7812C23.0002 10.5647 22.947 10.3621 22.8593 10.1787Z" fill="#2B313F"/>
<path d="M21.5937 9.375H8.40618C8.18971 9.375 7.98705 9.42822 7.80371 9.51594L14.0057 15.6867C14.5541 16.235 15.4458 16.235 15.9942 15.6867L22.1961 9.51594C22.0128 9.42822 21.8101 9.375 21.5937 9.375Z" fill="#2B313F"/>
<path d="M7.14094 10.1787C7.05322 10.3621 7 10.5647 7 10.7812V19.2187C7 19.4351 7.05322 19.6378 7.14094 19.8211L11.9934 14.9999L7.14094 10.1787Z" fill="#2B313F"/>
<path d="M17.3437 15.6631L16.657 16.3497C15.7433 17.2635 14.2565 17.2635 13.3428 16.3497L12.6562 15.6631L7.80371 20.4843C7.98705 20.572 8.18971 20.6252 8.40618 20.6252H21.5937C21.8101 20.6252 22.0128 20.572 22.1961 20.4843L17.3437 15.6631Z" fill="#2B313F"/>
</g>
<defs>
<clipPath id="clip0">
<rect width="16" height="16" fill="white" transform="translate(7 7)"/>
</clipPath>
</defs>
</svg>

<svg width="30" height="30" fill="none" xmlns="http://www.w3.org/2000/svg"><rect width="30" height="30" rx="3" fill="#fff"/><g clip-path="url(#clip0)" fill="#2B313F"><path d="M22.86 10.179l-4.853 4.82 4.852 4.822A1.39 1.39 0 0023 19.22V10.78c0-.216-.053-.419-.14-.602zM21.594 9.375H8.406c-.216 0-.419.053-.602.14l6.202 6.172c.548.548 1.44.548 1.988 0l6.202-6.171a1.39 1.39 0 00-.602-.141zM7.14 10.179a1.39 1.39 0 00-.14.602v8.438c0 .216.053.419.14.602L11.994 15l-4.852-4.821z"/><path d="M17.344 15.663l-.687.687c-.914.913-2.4.913-3.314 0l-.687-.687-4.852 4.821c.183.088.386.141.602.141h13.188c.216 0 .419-.053.602-.14l-4.852-4.822z"/></g><defs><clipPath id="clip0"><path fill="#fff" transform="translate(7 7)" d="M0 0h16v16H0z"/></clipPath></defs></svg>
